X: 2250
T: JIG
C: Carl Volti.
R: Jig.
%R: jig
B: James Kerr "Merry Melodies" v.2 p.28 #250
Z: 2016 John Chambers <jc:trillian.mit.edu>
M: 6/8
L: 1/8
K: G
|:\
vd2uG BAG | dBG gfe | vd2vG BAG | ABG FED |\
vd2vG BAG | dBG gfe | def gec | BcA G3 :|
|:\
DED GAB | AGA BGE | DED GAB | AGA B3 |\
DED GAB | AGA BGB | def gec | BcA G3 :|
